svg/Pictogram/pictograms-nps-misc-lighthouse.svg

<svg xmlns="http://www.w3.org/2000/svg" viewBox="0 0 256 256"><path d="m0 0c-.541 0-.981-.44-.981-.981v-7.522c0-.54.44-.979.981-.979h7.521c.542 0 .982.439.982.979v7.522c0 .541-.44.981-.982.981h-7.521" fill="#fff" transform="matrix(25.89783 0 0-25.89783 30.598 5.242)"/><path d="m0 0c.652 0 1.182.527 1.182 1.18v7.521c0 .653-.53 1.182-1.182 1.182h-7.521c-.653 0-1.182-.529-1.182-1.182v-7.521c0-.653.529-1.18 1.182-1.18h7.521" transform="matrix(25.89783 0 0-25.89783 225.39 256)"/><g fill="#fff"><path d="m0 0l-.002 1.449 3.414-.437.002-.578-3.414-.434" transform="matrix(25.89783 0 0-25.89783 20.13 80.03)"/><path d="m0 0v-1.449l-3.414.437v.578l3.414.434" transform="matrix(25.89783 0 0-25.89783 235.56 42.493)"/><path d="m0 0c-.02-.001-.031-.027-.031-.049 0-.029.023-.053.052-.053h2.37c.029 0 .054.024.054.053 0 .022-.013.039-.031.049l-1.207.678-1.207-.678" transform="matrix(25.89783 0 0-25.89783 96.56 43.861)"/><path d="m0 0l-.807 5.77h.207c.061 0 .11.048.11.107 0 .061-.049.109-.11.109h-2.476c-.061 0-.11-.048-.11-.109 0-.059.049-.107.11-.107h.207l-.807-5.77h3.676" transform="matrix(25.89783 0 0-25.89783 175.41 230.66)"/></g></svg>

<?xml version="1.0" encoding="UTF-8" standalone="no"?>
<!-- Created with Inkscape (http://www.inkscape.org/) -->
<svg
   xmlns:dc="http://purl.org/dc/elements/1.1/"
   xmlns:cc="http://creativecommons.org/ns#"
   xmlns:rdf="http://www.w3.org/1999/02/22-rdf-syntax-ns#"
   xmlns:svg="http://www.w3.org/2000/svg"
   xmlns="http://www.w3.org/2000/svg"
   xmlns:sodipodi="http://sodipodi.sourceforge.net/DTD/sodipodi-0.dtd"
   xmlns:inkscape="http://www.inkscape.org/namespaces/inkscape"
   width="256"
   height="256"
   id="svg5294"
   sodipodi:version="0.32"
   inkscape:version="0.46"
   version="1.0"
   sodipodi:docname="pictograms-nps-lighthouse-2.svg"
   inkscape:output_extension="org.inkscape.output.svg.inkscape">
  <defs
     id="defs5296">
    <inkscape:perspective
       sodipodi:type="inkscape:persp3d"
       inkscape:vp_x="0 : 526.18109 : 1"
       inkscape:vp_y="0 : 1000 : 0"
       inkscape:vp_z="744.09448 : 526.18109 : 1"
       inkscape:persp3d-origin="372.04724 : 350.78739 : 1"
       id="perspective5302" />
  </defs>
  <sodipodi:namedview
     id="base"
     pagecolor="#ffffff"
     bordercolor="#666666"
     borderopacity="1.0"
     gridtolerance="10000"
     guidetolerance="10"
     objecttolerance="10"
     inkscape:pageopacity="0.0"
     inkscape:pageshadow="2"
     inkscape:zoom="0.98994949"
     inkscape:cx="112.80911"
     inkscape:cy="62.857143"
     inkscape:document-units="px"
     inkscape:current-layer="layer1"
     showgrid="false"
     inkscape:window-width="725"
     inkscape:window-height="674"
     inkscape:window-x="1"
     inkscape:window-y="309" />
  <metadata
     id="metadata5299">
    <rdf:RDF>
      <cc:Work
         rdf:about="">
        <dc:format>image/svg+xml</dc:format>
        <dc:type
           rdf:resource="http://purl.org/dc/dcmitype/StillImage" />
      </cc:Work>
    </rdf:RDF>
  </metadata>
  <g
     inkscape:label="Layer 1"
     inkscape:groupmode="layer"
     id="layer1">
    <g
       id="g5784"
       transform="matrix(25.897825,0,0,-25.897825,30.598322,5.2417198)">
      <path
         d="M 0,0 C -0.541,0 -0.981,-0.44 -0.981,-0.981 L -0.981,-8.503 C -0.981,-9.043 -0.541,-9.482 0,-9.482 L 7.521,-9.482 C 8.063,-9.482 8.503,-9.043 8.503,-8.503 L 8.503,-0.981 C 8.503,-0.44 8.063,0 7.521,0 L 0,0 z"
         style="fill:#ffffff;fill-opacity:1;fill-rule:nonzero;stroke:none"
         id="path5786" />
    </g>
    <g
       id="g5788"
       transform="matrix(25.897825,0,0,-25.897825,225.38877,256)">
      <path
         d="M 0,0 C 0.652,0 1.182,0.527 1.182,1.18 L 1.182,8.701 C 1.182,9.354 0.652,9.883 0,9.883 L -7.521,9.883 C -8.174,9.883 -8.703,9.354 -8.703,8.701 L -8.703,1.18 C -8.703,0.527 -8.174,0 -7.521,0 L 0,0 z"
         style="fill:#000000;fill-opacity:1;fill-rule:nonzero;stroke:none"
         id="path5790" />
    </g>
    <g
       id="g5792"
       transform="matrix(25.897825,0,0,-25.897825,20.127914,80.026973)">
      <path
         d="M 0,0 L -0.002,1.449 L 3.412,1.012 L 3.414,0.434 L 0,0 z"
         style="fill:#ffffff;fill-opacity:1;fill-rule:nonzero;stroke:none"
         id="path5794" />
    </g>
    <g
       id="g5796"
       transform="matrix(25.897825,0,0,-25.897825,235.55611,42.493151)">
      <path
         d="M 0,0 L 0,-1.449 L -3.414,-1.012 L -3.414,-0.434 L 0,0 z"
         style="fill:#ffffff;fill-opacity:1;fill-rule:nonzero;stroke:none"
         id="path5798" />
    </g>
    <g
       id="g5800"
       transform="matrix(25.897825,0,0,-25.897825,96.557223,43.860556)">
      <path
         d="M 0,0 C -0.02,-0.01 -0.031,-0.027 -0.031,-0.049 C -0.031,-0.078 -0.008,-0.102 0.021,-0.102 L 2.391,-0.102 C 2.42,-0.102 2.445,-0.078 2.445,-0.049 C 2.445,-0.027 2.432,-0.01 2.414,0 L 1.207,0.678 L 0,0 z"
         style="fill:#ffffff;fill-opacity:1;fill-rule:nonzero;stroke:none"
         id="path5802" />
    </g>
    <g
       id="g5804"
       transform="matrix(25.897825,0,0,-25.897825,175.4137,230.65908)">
      <path
         d="M 0,0 L -0.807,5.77 L -0.6,5.77 C -0.539,5.77 -0.49,5.818 -0.49,5.877 C -0.49,5.938 -0.539,5.986 -0.6,5.986 L -3.076,5.986 C -3.137,5.986 -3.186,5.938 -3.186,5.877 C -3.186,5.818 -3.137,5.77 -3.076,5.77 L -2.869,5.77 L -3.676,0 L 0,0 z"
         style="fill:#ffffff;fill-opacity:1;fill-rule:nonzero;stroke:none"
         id="path5806" />
    </g>
  </g>
</svg>
